icons/fill-ele-media-sound-turn-off-microphone-round-pill.svg

<svg xmlns="http://www.w3.org/2000/svg" width="32px" height="32px" viewBox="0 0 32 32" version="1.1">
    <title>fill-ele-media-sound-turn-off-microphone-round-pill</title>
    <g id="fill-ele-media-sound-turn-off-microphone-round-pill" stroke-width="1" fill-rule="evenodd">
        <path d="M25,15 C25.5522847,15 26,15.4477153 26,16 C26,21.1849719 22.0538953,25.4482817 17.0010997,25.9505155 L17,28 L19,28 C19.5522847,28 20,28.4477153 20,29 C20,29.5522847 19.5522847,30 19,30 L13,30 C12.4477153,30 12,29.5522847 12,29 C12,28.4477153 12.4477153,28 13,28 L15,28 L14.9999786,25.9506226 C13.195284,25.7714377 11.5317339,25.1124615 10.1386895,24.1030553 L11.5766779,22.6669358 C12.8436721,23.5092343 14.3645238,24 16,24 C20.418278,24 24,20.418278 24,16 C24,15.4477153 24.4477153,15 25,15 Z M16,2 C18.8749214,2 21.2775845,4.02197835 21.8634766,6.72142231 L25.2928932,3.29289322 C25.6834175,2.90236893 26.3165825,2.90236893 26.7071068,3.29289322 C27.0976311,3.68341751 27.0976311,4.31658249 26.7071068,4.70710678 L4.70710678,26.7071068 C4.31658249,27.0976311 3.68341751,27.0976311 3.29289322,26.7071068 C2.90236893,26.3165825 2.90236893,25.6834175 3.29289322,25.2928932 L7.42969202,21.1555544 C6.52211572,19.6500864 6,17.8860165 6,16 C6,15.4477153 6.44771525,15 7,15 C7.55228475,15 8,15.4477153 8,16 C8,17.3293476 8.32423727,18.5829656 8.89794218,19.6860843 L10.4073746,18.1775853 C10.1443394,17.5025315 10,16.7681219 10,16 L10,8 C10,4.6862915 12.6862915,2 16,2 Z M22,12.242 L22,16 C22,19.3137085 19.3137085,22 16,22 C14.919155,22 13.9050605,21.7142072 13.0291624,21.2140673 L22,12.242 Z" id="&#24418;&#29366;" fill-rule="nonzero" />
    </g>
</svg>

<svg xmlns="http://www.w3.org/2000/svg" viewBox="0 0 32 32"><path fill="currentColor" d="M25 15a1 1 0 0 1 1 1c0 5.185-3.946 9.448-8.999 9.95L17 28h2a1 1 0 0 1 0 2h-6a1 1 0 0 1 0-2h2v-2.05a9.946 9.946 0 0 1-4.861-1.847l1.438-1.436A8 8 0 0 0 24 16a1 1 0 0 1 1-1M16 2a6.002 6.002 0 0 1 5.863 4.721l3.43-3.428a1 1 0 0 1 1.414 1.414l-22 22a1 1 0 1 1-1.414-1.414l4.137-4.137A9.953 9.953 0 0 1 6 16a1 1 0 0 1 2 0c0 1.33.324 2.583.898 3.686l1.51-1.508A5.985 5.985 0 0 1 10 16V8a6 6 0 0 1 6-6m6 10.242V16a6 6 0 0 1-8.97 5.214z"/></svg>
